dist/svgs/unicons/line/window-section.svg

<svg xmlns="http://www.w3.org/2000/svg" viewBox="0 0 24 24"><path d="M21 2H3a1 1 0 00-1 1v18a1 1 0 001 1h18a1 1 0 001-1V3a1 1 0 00-1-1zM8 20H4V10h4zm6 0h-4V10h4zm6 0h-4V10h4zm0-12H4V4h16z"/></svg>

<svg xmlns="http://www.w3.org/2000/svg" viewBox="0 0 24 24"><path d="M21,2H3A1,1,0,0,0,2,3V21a1,1,0,0,0,1,1H21a1,1,0,0,0,1-1V3A1,1,0,0,0,21,2ZM8,20H4V10H8Zm6,0H10V10h4Zm6,0H16V10h4ZM20,8H4V4H20Z"/></svg>
